X: 4
T: The Galway Rambler
R: reel
M: 4/4
L: 1/8
K: Gmaj
(3GGG dG eGdG| (3GGG dB AGGG | AGGA BABd | gedB AGGG |(3GGG dG eGdG| (3GGG dB AGGG | GAGA BABd | gedB A2 Bd ||gfgb a2ab|gabg agef|~g3 b a2ab|gedB A2 Bd|gabg gabg | gabg a2ga|bgag (3efg fa|gedB AcBA||


Tune 634	Setting 28226

